svgs/sharp-light/notebook.svg

<svg xmlns="http://www.w3.org/2000/svg" viewBox="0 0 512 512"><!--! Font Awesome Pro 6.6.0 by @fontawesome - https://fontawesome.com License - https://fontawesome.com/license (Commercial License) Copyright 2024 Fonticons, Inc. --><path d="M224 480l224 0 0-448L224 32l0 448zm-32 0l0-448L96 32l0 80 32 0 16 0 0 32-16 0-32 0 0 96 32 0 16 0 0 32-16 0-32 0 0 96 32 0 16 0 0 32-16 0-32 0 0 80 96 0zm0 32l-96 0-32 0 0-32 0-80-48 0L0 400l0-32 16 0 48 0 0-96-48 0L0 272l0-32 16 0 48 0 0-96-48 0L0 144l0-32 16 0 48 0 0-80L64 0 96 0l96 0 32 0L448 0l32 0 0 32 0 448 0 32-32 0-224 0-32 0z"/></svg>

<svg xmlns="http://www.w3.org/2000/svg" viewBox="0 0 512 512"><!--! Font Awesome Pro 6.4.2 by @fontawesome - https://fontawesome.com License - https://fontawesome.com/license (Commercial License) Copyright 2023 Fonticons, Inc. --><path d="M224 480H448V32H224V480zm-32 0V32H96v80h32 16v32H128 96v96h32 16v32H128 96v96h32 16v32H128 96v80h96zm0 32H96 64V480 400H16 0V368H16 64V272H16 0V240H16 64V144H16 0V112H16 64V32 0H96h96 32H448h32V32 480v32H448 224 192z"/></svg>
